X:1
T: Father O'Carroll
C:
R:Jig
Q:180
K:G
M:6/8
L:1/16
Bc|d2e2d2 e2d2B2|G2A2G2 G2E2D2|D2E2G2 G2A2B2|B2A2A2 A4Bc|d2g2e2 d2b2A2|G2A2G2 G2E2D2|D2E2G2 A2B2c2|B2G2G2 G4Bc|
d2e2d2 e2d2B2|G2A2G2 G2E2D2|D2E2G2 G2A2B2|B2A2A2 A4Bc|d2g2e2 d2b2A2|G2A2G2 G2E2D2|D2E2G2 A2B2c2|B2G2G2 G4c2|
B2A2G2 B2c2d2|e2g2e2 d2B2G2|B2A2G2 G2F2G2|B2A2A2 A4c2|B2G2G2 d2G2G2|e2g2e2 d2B2G2|D2E2F2 A2B2c2|B2G2G2 G4c2|
B2A2G2 B2c2d2|e2g2e2 d2B2G2|B2A2G2 G2F2G2|B2A2A2 A4c2|B2G2G2 d2G2G2|e2g2e2 d2B2G2|D2E2F2 A2B2c2|B2G2G2 G4||
